X: 30394
M: 2/4
L: 1/8
K: G
(GB)(Bd) | (dg).g.f | (ag).e.c | (ed)d B/A/ |\
(GB)(Bd) | (dg)(ec) | Bd FA | (AG)G :|
(A/B/) |\
(Ad)dA | (Aa)af | {ef}.e.d.e.f | (d/e/f/e/) .d A/B/ |\
(Ad).d.A | (Aa).a.f | {ef}edef | d2 "^D.C."z :|


